!!!OTL: VIVAT ES LEBE DAS PREUSSISCHE HEER
!!!ARE: Europa, Mitteleuropa, Deutschland, Pommern, Anclam
!!!SCT: E1368
!!!YEM: Copyright 1995, estate of Helmut Schaffrath.
**kern
*ICvox
*Ivox
*M4/4
*k[f#]
*G:
{8g
8a
=1
4b
4b
4b
4b
=2
4b
4dd
4b}
{4b
=3
4dd
4cc
4a
4dd
=4
2b
4r}
{8g
8a
=5
4b
4b
4b
4b
=6
4b
4dd
4b}
{4b
=7
4dd
4cc
4a
4f#
=8
2g
4r}
{8f#
8g
=9
4b
4a
4a
8g
8a
=10
2b
4r}
{8f#
8g
=11
4a
4a
4a
8g
8a
=12
2b
4r}
{8g
8a
=13
4b
4b
4b
4b
=14
4b
4dd
4b}
{4b
=15
4dd
4cc
4a
4f#
=16
2g
4r}
==
!!!AGN: Staende -, Soldaten -, Kriegs - Lied
!!!ONB: ESAC (Essen Associative Code) Database: ERK3
!!!AMT: simple quadruple
!!!AIN: vox
!!!EED: Helmut Schaffrath
!!!EEV: 1.0
*-
